packages/flat-components/src/components/CloudStorage/CloudStorageFileTitle/icons/pdf.svg

<?xml version="1.0" encoding="UTF-8"?>
<svg width="22px" height="22px" viewBox="0 0 22 22" version="1.1" xmlns="http://www.w3.org/2000/svg" xmlns:xlink="http://www.w3.org/1999/xlink">
    <title>矩形备份 21</title>
    <g id="Flat" stroke="none" stroke-width="1" fill="none" fill-rule="evenodd">
        <g id="规范（持续更新）" transform="translate(-1203.000000, -164.000000)">
            <g id="编组-15备份-7" transform="translate(1203.000000, 164.000000)">
                <path d="M7,4 L12.2,4 L12.2,4 L17,8.66666667 L17,16 C17,17.1045695 16.1045695,18 15,18 L7,18 C5.8954305,18 5,17.1045695 5,16 L5,6 C5,4.8954305 5.8954305,4 7,4 Z" id="矩形" stroke="#DB5B5B" stroke-linecap="round" stroke-linejoin="round"></path>
                <path d="M13.1654167,14.4795655 C12.7155255,14.4461494 12.282297,14.2790687 11.9323817,13.9783234 C11.2492137,14.128696 10.599371,14.345901 9.94952823,14.6132301 C9.43298656,15.532174 8.94977016,16 8.5332043,16 C8.44989113,16 8.34991532,15.9832919 8.28326479,15.9331677 C8.09997581,15.8496274 8,15.6658386 8,15.4820498 C8,15.3316772 8.03332527,14.9139754 9.61627554,14.2289445 C9.9828535,13.5606216 10.2661183,12.8755907 10.4993952,12.1571437 C10.2994436,11.75615 9.86621506,10.7703738 10.1661425,10.2691317 C10.2661183,10.0853429 10.4660699,9.98509445 10.6826841,10.0018025 C10.8493105,10.0018025 11.0159368,10.0853429 11.1159126,10.2190074 C11.3325269,10.5197527 11.3158642,11.1546594 11.0325995,12.0903114 C11.2992016,12.5915535 11.6491169,13.0426714 12.0656828,13.4269571 C12.4155981,13.3601248 12.7655134,13.3100006 13.1154288,13.3100006 C13.8985726,13.3267086 14.015211,13.6942862 13.9985484,13.9114911 C13.9985484,14.4795655 13.4486815,14.4795655 13.1654167,14.4795655 L13.1654167,14.4795655 Z M8.49987903,15.5154659 L8.54986694,15.4987579 C8.78314382,15.4152175 8.9664328,15.2481368 9.09973387,15.0309319 C8.84979435,15.1311803 8.64984274,15.298261 8.49987903,15.5154659 Z M10.7160094,10.5030447 L10.6660215,10.5030447 C10.6493589,10.5030447 10.6160336,10.5030447 10.599371,10.5197527 C10.5327204,10.8037899 10.5827083,11.1045352 10.6993468,11.3718643 C10.7993226,11.0878271 10.7993226,10.7870819 10.7160094,10.5030447 L10.7160094,10.5030447 Z M10.8326479,12.9257149 L10.8159852,12.9591311 L10.7993226,12.942423 C10.6493589,13.3267086 10.4827325,13.7109943 10.2994436,14.0785718 L10.3327688,14.0618638 L10.3327688,14.0952799 C10.6993468,13.9616153 11.09925,13.8446588 11.465828,13.7611185 L11.4491653,13.7444104 L11.4991532,13.7444104 C11.2492137,13.4937894 11.0159368,13.2097521 10.8326479,12.9257149 L10.8326479,12.9257149 Z M13.0987661,13.8112427 C12.9488024,13.8112427 12.8155013,13.8112427 12.6655376,13.8446588 C12.832164,13.9281992 12.9987903,13.9616153 13.1654167,13.9783234 C13.2820551,13.9950315 13.3986936,13.9783234 13.4986694,13.9449073 C13.4986694,13.8947831 13.4320188,13.8112427 13.0987661,13.8112427 Z" id="形状" fill="#DB5B5B" fill-rule="nonzero"></path>
                <path d="M12,4 L17,9 L14.1818182,9 C12.9768333,9 12,8.02316673 12,6.81818182 L12,4 L12,4 Z" id="矩形" fill="#DB5B5B"></path>
            </g>
        </g>
    </g>
</svg>

<svg width="22" height="22" xmlns="http://www.w3.org/2000/svg"><g fill="none" fill-rule="evenodd"><path d="M7 4h5.2L17 8.667V16a2 2 0 0 1-2 2H7a2 2 0 0 1-2-2V6a2 2 0 0 1 2-2Z" stroke="#DB5B5B" stroke-linecap="round" stroke-linejoin="round"/><path d="M13.165 14.48a2.12 2.12 0 0 1-1.233-.502 11.91 11.91 0 0 0-1.982.635c-.517.92-1 1.387-1.417 1.387a.433.433 0 0 1-.25-.067.493.493 0 0 1-.283-.451c0-.15.033-.568 1.616-1.253.367-.668.65-1.353.883-2.072-.2-.4-.633-1.387-.333-1.888a.53.53 0 0 1 .517-.267c.166 0 .333.083.433.217.217.3.2.936-.083 1.871.266.502.616.953 1.033 1.337a5.6 5.6 0 0 1 1.05-.117c.783.017.9.384.883.601 0 .569-.55.569-.834.569ZM8.5 15.515l.05-.016c.233-.084.416-.25.55-.468-.25.1-.45.267-.6.484Zm2.216-5.012h-.05c-.017 0-.05 0-.067.017-.066.284-.016.585.1.852.1-.284.1-.585.017-.869Zm.117 2.423-.017.033-.017-.017a13.8 13.8 0 0 1-.5 1.137l.034-.017v.033c.366-.133.766-.25 1.133-.334l-.017-.017h.05a5.117 5.117 0 0 1-.666-.818Zm2.266.885c-.15 0-.283 0-.433.034.166.083.333.117.5.133.116.017.233 0 .333-.033 0-.05-.067-.134-.4-.134Z" fill="#DB5B5B" fill-rule="nonzero"/><path d="m12 4 5 5h-2.818A2.182 2.182 0 0 1 12 6.818V4Z" fill="#DB5B5B"/></g></svg>
